X: 40
T: POLKA PIQUEE
M: 4/4
L: 1/8
Q:1/4=120
K:C 
|ggee ffd3/2 z/2 |ffdd aage|ggee ffd3/2 z/2 |ffa3/2 z/2 g3/2 z/2 c3/2 z/
2 |
e3/2 z/2 g3/2 z/2 f/2e/2dec|e3/2 z/2 g3/2 z/2 f/2e/2dc3/2 z/2 |e3/2 z/2 
g3/2 z/2 f/2e/2dec|e3/2 z/2 g3/2 z/2 f/2e/2dc3/2|
